X: 7778
T: Come Fill, Fill, My Good Fellow
R: slip jig
M: 9/8
K: Bminor
d/2c/2|B3 FBc dcB|A3 EAc edc|B2 B FBc dfd|edc cf^A B2 f|
b2 B d2 f fed|a2 e c2 e edc|fed agf edc|dcB c/2f3/2^A B2:|

